src/cmd/lc_grafattrcrop.svg

<svg viewBox="0 0 24 24" xmlns="http://www.w3.org/2000/svg"><path d="m4 4v2 1h3v-1-2h-2zm13 0v1h2v2h1v-2-1zm-12 1h1v1h-1zm3 1v1h2v-1zm3 0v1h2v-1zm3 0v1h2v-1zm-8 2v2h1v-2zm4 0v7h1 5v-1h-5v-6zm7 0v2h1v-2zm-11 3v2h1v-2zm11 0v2h1v-2zm-11 3v2h1v-2zm11 0v2h1v-2zm-13 3v1 2h1 1 1v-3zm4 0v1h1v-1zm-3 1h1v1h-1z" fill="#232629"/><path d="m11 18c-.552285 0-1 .44772-1 1s.447715 1 1 1 1-.44772 1-1-.447715-1-1-1zm4 0c-.552285 0-1 .44772-1 1s.447715 1 1 1 1-.44772 1-1-.447715-1-1-1zm4 0c-.552285 0-1 .447715-1 1s.447715 1 1 1 1-.447715 1-1-.447715-1-1-1z" fill="#e95420"/></svg>

<?xml version="1.0" encoding="UTF-8" standalone="no"?>
<svg
   xmlns:dc="http://purl.org/dc/elements/1.1/"
   xmlns:cc="http://creativecommons.org/ns#"
   xmlns:rdf="http://www.w3.org/1999/02/22-rdf-syntax-ns#"
   xmlns:svg="http://www.w3.org/2000/svg"
   xmlns="http://www.w3.org/2000/svg"
   xmlns:sodipodi="http://sodipodi.sourceforge.net/DTD/sodipodi-0.dtd"
   xmlns:inkscape="http://www.inkscape.org/namespaces/inkscape"
   viewBox="0 0 24 24"
   version="1.1"
   id="svg6"
   sodipodi:docname="lc_grafattrcrop.svg"
   inkscape:version="0.92.4 (5da689c313, 2019-01-14)">
  <metadata
     id="metadata12">
    <rdf:RDF>
      <cc:Work
         rdf:about="">
        <dc:format>image/svg+xml</dc:format>
        <dc:type
           rdf:resource="http://purl.org/dc/dcmitype/StillImage" />
      </cc:Work>
    </rdf:RDF>
  </metadata>
  <defs
     id="defs10" />
  <sodipodi:namedview
     pagecolor="#ffffff"
     bordercolor="#666666"
     borderopacity="1"
     objecttolerance="10"
     gridtolerance="10"
     guidetolerance="10"
     inkscape:pageopacity="0"
     inkscape:pageshadow="2"
     inkscape:window-width="1920"
     inkscape:window-height="1011"
     id="namedview8"
     showgrid="true"
     inkscape:zoom="27.812867"
     inkscape:cx="7.1765372"
     inkscape:cy="7.0276084"
     inkscape:window-x="0"
     inkscape:window-y="32"
     inkscape:window-maximized="1"
     inkscape:current-layer="svg6">
    <inkscape:grid
       type="xygrid"
       id="grid859" />
  </sodipodi:namedview>
  <path
     id="path865"
     d="m 14,17 v 1 h 2 v -1 z m -3,0 v 1 h 2 v -1 z m -3,0 v 1 h 2 v -1 z m 9,0 v 1 2 h 1 1 1 v -3 z m 1,1 h 1 v 1 H 18 Z M 4,17 v 1 2 h 1 1 1 v -3 z m 1,1 h 1 v 1 H 5 Z m 12,-4 v 2 h 1 V 14 Z M 6,14 v 2 h 1 v -2 z m 11,-3 v 2 h 1 V 11 Z M 6,11 v 2 H 7 V 11 Z M 17,8 v 2 h 1 V 8 Z m -7,0 v 7 h 1 5 V 14 H 11 V 8 Z M 6,8 v 2 H 7 V 8 Z m 8,-2 v 1 h 2 V 6 Z m -3,0 v 1 h 2 V 6 Z M 8,6 v 1 h 2 V 6 Z m 9,-2 v 1 h 2 v 2 h 1 V 5 4 Z M 4,4 V 6 7 H 7 V 6 4 H 5 Z M 5,5 H 6 V 6 H 5 Z"
     style="fill:#232629;fill-opacity:1" />
</svg>
